!!!COM: Anonim
!!!CDT: [?]
!!!OTL@@LAT: Dormi dormi o Puelle
!!!TXO: Latin
!!!ODT: 
!!!GTL: Hymnbook E
!!!ARL: Opactwo św. Wojciecha, Staniątki 
!!!voices:	2
**kern	**kern	**text
*staff2	*staff1	*staff1
*I"Basso	*I"Canto	*
=1-	=1-	=1-
*clefF4	*clefG2	*
*k[f#c#]	*k[f#c#]	*
*met(c|)	*met(c|)	*
*M2/2	*M2/2	*
8AA/	8cc#\	Dor-
8AA/	8a/	-mi
8A\	8b\	dor-
8G#\	8b\	-mi
8F#\	8cc#\	o
8F#\	8dd\	pu-
8E\	8ee\	-el-
8D\	8ee\	-le
=2	=2	=2
8C#/	8e/	nul-
8C#/	8e/	-lae
8D\	16f#/LL	te
.	16g#/JJ	.
8AA/	8a/	tur-
8E\	16b\LL	-bent
.	16cc#\JJ	.
8EE/	16dd\LL	pro-
.	16ee\JJ	.
8AA/	8cc#\	-cel-
8AA/	8a/	-lae
=3	=3	=3
!!linebreak:original
8GG#/	8b\	non
8GG#/	8ee\	cla-
8AA/	16cc#\LL	-mo-
.	16b\JJ	.
8E\	16a/LL	-res
.	16g/JJ	.
8B\	8f#/	non
8BB/	8b\	do-
8E\	8g#/	-lo-
16E\LL	8e/	-res
16F#\JJ	.	.
=4	=4	=4
8G#\	8b\	non
16F#\LL	8ee\	phan-
16G#\JJ	.	.
8A\	8cc#\	-tas-
8D\	8a/	-ma
8E\	8.a/	tum
8EE/	.	.
.	16g#/	ho-
8AA/	8a/	-no-
8AA/	8a/	-res
=5	=5	=5
!!linebreak:original
[8GG#/	8r	.
8GG#/]	8b\	tu
16AA/LL	16cc#\LL	so-
16BB/JJ	16dd#\JJ	.
16C#/LL	8ee\	-lus
16AA/JJ	.	.
8BB/	8.ee\	De-
8BB/	.	.
.	16dd#\	-us
4E\	4ee\	es
=6	=6	=6
8G\	8r	.
8G\	16ee\	i-
.	16b\	-ta
4A\	4cc#\	est
8E\	8r	.
8EE/	16b\	i-
.	16g#/	-ta
4AA/	4a/	est
=7	=7	=7
!!linebreak:original
4GG#/	8r	.
.	8b\	tu
8AA/	16cc#\LL	so-
.	16dd\JJ	.
8AA/	8ee\	-lus
8.BB/	8.ee\	De-
16BB/	16dd#\	-us
8E\L	4ee\	es
8F#\J	.	.
=8	=8	=8
8G\	8r	.
16F#\LL	16ee\	i-
16G\JJ	16b\	-ta
8A\L	4cc#\	est
8D\J	.	.
8E\	8r	.
8EE/	16b\	i-
.	16g#/	-ta
4AA/	4a/	est.
==:|!	==:|!	==:|!
*-	*-	*-
!!title: @{OTL}, @{GTL}: @{pag}, ed. @{ENC}
!!!pag: pp. 57v-58r
!!!GTL: Hymnbook E
!!!EFL: 
!!!YEM: Creative Commons CC/BY/NC/SA 4.0
!!!ENC: Marcin Konik
!!!END: 2015-05-07
!!!EED: Marcin Konik
!!!EEV: 
!!!ONB: Encoded in vim by Marcin Konik
!!!CharacterEncoding: utf-8
!!!RDF**kern: l=long note in original notation
!!!RDF**kern: i=editorial accidental
!!muse2ps: z14jc180F
